X: 34237
T: Reel With The Birl, The
R: reel
M: 4/4
K: Edorian
E2 BE dEBE|E2 BE AGFD|E2 BE dE B2|1 d2 dB AGFD:|2 d2 dB A4||
B3 d e3 g|fd d2 d2 ef|g4 g3 e|fa a2 afed|
f3 b bafe|fa a2 afed|B3 B BAFA|d2 dB AGFD||

